X:1

T:Road to Boston

M:C|

L:1/8

K:D

Ade|f4 f2ef|g2f2e2e/f/d|c2d2e2f2|d2A2F2A2|f6 ef|g2f2e2d2|c2d2e2c2|d6:|

|:fg|a4 a2^ga|b2a2gaf2|g6 fg|a2g2f2e2|f4 f2ef|g2f2e2d2|c2d2e2c2|d2A2d2:|

           


ROAD TO BOYLE, THE (An Bóthar go Mainistir na Búille). AKA and see "Delahanty's Hornpipe," “Delahunty’s Hornpipe,” "The Home Brew," “The Iron Gate,” “John Quinn’s [1],” “A Kerry Hornpipe [1],” "Sonny Murray's," "Wicklow Hornpipe.” Irish, Hornpipe. D Major. Standard tuning. AABB. The tune is called “Wicklow Hornpipe” in O’Neill, and has been printed as “A Kerry Hornpipe” in Treoir (III, 3, pg. 11). Source for notated version: flute player Seamus Tansey (Ireland) [Breathnach]. Breathnach (CRÉ III), 1985; No. 227, pg. 103. Outlet Records, Seamus Tansey, "Sligo Ceili.”

           

ROAD TO BRIGHTON, THE. Irish, Reel. Ireland, northern Ireland. G Major. Standard tuning. AABB. Source for notated version: fiddler John Loughran [Feldman & O’Doherty]. Feldman & O’Doherty (The Northern Fiddler), 1979; pg. 240.

           

ROAD TO CALIFORNIA. American, Reel. D Major. Standard tuning. AABB. Seattle musician Phil Katz told Susan Songer (Portland Collection, 1997) he believes this tune originated in New England and associates it with New Hampshire fiddler Harold Luce. Songer (Portland Collection), 1997; pg. 167. Mick Doherty et al, The Whammaddiddle Dingbats - “Saturday at the Market” (1987).

           

ROAD TO CASHEL. Irish, Reel. B Minor (7th). Standard tuning. AAB. Composed by County Leitrim pianist and fiddler Charlie Lennon in the 1970’s. The ‘A’ part is very similar to that of  “The Cabin Hunter” though the ‘B’ parts differ in some respects.  Lennon is aware of the similarity between the tunes, and indicates in his writings that they are the same tune, when he notes "’The Road to Cashel’ has been recorded by the group The Boys of the Lough. It has also been recorded by Kevin Burke and Matt Molloy under the title of ‘The Hunter's Cabin’." Burke himself credits Lennon with the composition of the tune on his album “Up Close.” There were magnificent churches at the ancient Munster stronghold of the Rock of Cashel, and Cashel is also a town near the Fermanagh-Leitrim border. Carlin (Master Collection), 1984; No. 212, pg. 125. Lennon (Musical Memories, vol. 1), 1993. Cló Iar-Chonnachta Records, CICD 148, Mick Conneely – “Selkie” (2001).

